X: 32343
T: Pinch Of Snuff, The
R: reel
M: 4/4
K: Dmajor
|:DF F2 AF F2|DF F2 EFGE|DF F2 AF F2|GABG EFGE:|
|:DFAF BFAF|DFAF EFGE|DFAF BFAF|1 GABG EFGE:|2 GABG EFGA||
K:G
|:GB B2 dB B2|GB B2 ABcA|GB B2 dB B2|cdec ABcA:|
|:GBdB eBdB|GBdB ABcA|GBdB eBdB|1 cdec ABcA:|2 cdec ABcd||
K:A
|:Ac c2 ec c2|Ac c2 BcdB|Ac c2 ec c2|defd BcdB:|
|:Acec fcec|Acec BcdB|Acec fcec|1 defd BcdB:|2 defd Bcde||
K:D
|:df f2 af f2|df f2 efge|df f2 af f2|gabg efge:|
|:dfaf bfaf|dfaf efge|dfaf bfaf|1 gabg efge:|2 gabg edAG||

